X:67
T:Steyrer Tanz in G, nr. 26
C:traditionell
R:Steirer
A:Hallstatt, Salzkammergut
B:Corpus Musicae Popularis Austriacae (COMPA), 5.Band: J.M.Schmalnauer " Tanz Musik", Verlag Boehlau, Wien 1996
S:manuscript des Johann Michael Schmalnauer um 1820
N:im der quelle in G
Z:abc transcription Simon Wascher
F:http://simonwascher.info/TradArchiv/
M:3/4
L:1/8
K:G
V:1
%violino 1mo
P:h:Ap
B,D |\
G2 B,DGB, | C2 FA C2 | e2 cDFA | G2 Bdge |\
G2 B,DGB, | C2 FA C2 | e2 cDFA | "in D" G4 :|
V:2
%violino 2do
G,A, |\
B,2 G,A,B,G, | A,2 DF A,2 | c2 AFDC | B,2 G,B,EC |\
B,2 G,A,B,G, | A,2 DF A,2 | c2 AFDC | B,4 :|
